X: 2164
T: Şem`i Rûhuna Cismimi
C: Sultan Veled
O: Turkey
F: http://compmusic.upf.edu/node/140
N: segah-maye--ilahi--devrirevan--sem-i_ruhuna--sultan_veled
N: makam= segah-maye
N: form= ilahi
N: usul= devrirevan = 14/8
M: 14/8
L: 1/16
K: C _1/4B _1/4e ^f 
Q: 1/4=108
%%MIDI tuningsystem comma53
d4 =e2d2 cdc2 B2A2 {B}A2B2 c2Bc d4  | \
w:  Şem  *  i  *  *  *  *  rû *  *  hu na  *  *  cis  | 
A4 B2c3Bd2 cB{c}B2 c2BA A6z2  | 
w:  mi mi  per *  *  *  *  *  vâ   | 
g4 f2g2 f2e2 d2d4e2 f2g2 f2e2  | d4 cBc3Bd2 cB{c}B6 B2c2 d4  | 
w:  vâ  |  ne  dü *  şür *  *  *  *  *  düm    | 
d4 =e2d2 cdc2 B2A2 {B}A2B2 c2Bc d4  | \
w:  Ev *  râk_ *  *  *  *  ı  *  *  di li  *  *  â  | 
A4 B2c3Bd2 cB{c}B2 c2BA A6z2  | 
w:  teş_ i  sû *  *  *  *  *  zâ   | 
g4 f2g2 f2e2 d2d4e2 f2g2 f2e2  | d4 cBc3Bd2 cB{c}B6 B2c2 d4  | 
w:  zâ  |  ne  dü *  şür *  *  *  *  *  düm    | 
d4 =e2d2 cdc2 B2A2 {B}A2B2 c2Bc d4  | \
w:  Şem  *  i  *  *  *  *  rû *  *  hu na  *  *  cis  | 
A4 B2c3Bd2 cB{c}B2 c2BA A6z2  | 
w:  mi mi  per *  *  *  *  *  vâ   | 
g4 f2g2 f2e2 d2d4e2 f2g2 f2e2  | d4 cBc3Bd2 cB{c}B6 B2c2 d4  | 
w:  vâ  |  ne  dü *  şür *  *  *  *  *  düm    | 
d4 =e2d2 cdc2 B2A2 {B}A2B2 c2Bc d4  | \
w:  Ev *  râk_ *  *  *  *  ı  *  *  di li  *  *  â  | 
A4 B2c3Bd2 cB{c}B2 c2BA A6z2  | 
w:  teş_ i  sû *  *  *  *  *  zâ   | 
g4 f2g2 f2e2 d2d4e2 f2g2 f2e2  | d4 cBc3Bd2 cB{c}B6 B2c2 d4  | 
w:  zâ  |  ne  dü *  şür *  *  *  *  *  düm    | 
d4 =e2d2 cdc2 B2A2 {B}A2B2 c2Bc d4  | \
w:  Mev *  lâ *  *  *  *  yı  *  *  se ver *  *  sen   | 
A4 B2c3Bd2 cB{c}B2 c2BA A6z2  | 
w:  be ni  söy *  *  *  *  *  let   | 
g4 f2g2 f2e2 d2d4e2 f2g2 f2e2  | d4 cBc3Bd2 cB{c}B8-B2 z4  | 
w:  let  |  me  ga *  mım  *  *  *  *  *  var    | 
|


